build/img/svg/icon-phone.svg

<svg width="26" height="24" viewBox="0 0 26 24" fill="none" xmlns="http://www.w3.org/2000/svg">
<path d="M23.3987 21.4533C22.2638 21.2247 22.5475 20.5209 22.522 19.8473C22.4578 19.1471 22.4578 18.4421 22.522 17.742C22.9504 14.8818 21.9546 12.8186 19.6195 11.3599C18.8961 10.9058 18.3144 10.205 17.6108 9.70579C16.9072 9.20653 16.4589 8.57795 16.6291 7.6005C16.8136 6.55086 16.3965 6.2471 15.4035 6.25913C14.4644 6.25913 13.965 6.4456 14.1523 7.54937C14.3168 8.50878 13.9508 8.75239 13.0174 8.81555C11.7151 8.9148 11.7577 8.14787 11.8825 7.2817C12.0329 6.09371 11.2867 6.30124 10.6483 6.29823C10.01 6.29522 9.22974 6.10875 9.39714 7.27268C9.59007 8.5178 9.07086 9.29375 8.10621 9.97947C7.05078 10.7193 6.14855 11.7088 5.1073 12.4787C3.89582 13.381 3.43335 14.5329 3.50428 16.0638C3.56954 17.5104 3.52698 18.963 3.50428 20.4157C3.50428 20.7736 3.666 21.2638 3.06452 21.3179C1.61188 21.4473 2.41196 22.6112 2.34387 23.2789C2.2701 24.2894 3.12126 23.9405 3.59507 23.9465C6.71599 23.9736 9.82272 23.9465 12.938 23.9465C16.1951 23.9465 19.4512 23.9465 22.7064 23.9465C23.0979 23.9465 23.6994 24.112 23.6909 23.4473C23.6824 22.7826 24.1165 21.5976 23.3987 21.4533ZM20.1728 19.8503C19.9912 21.0533 19.8267 21.4232 18.6719 21.354C16.7909 21.2458 14.9013 21.324 13.0146 21.324C10.9377 21.324 8.86374 21.2969 6.78976 21.342C6.10599 21.342 5.84213 21.1375 5.9386 20.4187C5.98461 20.1199 5.98461 19.8152 5.9386 19.5164C5.31441 16.2412 6.5259 13.9464 9.20137 12.2833C10.0327 11.763 10.7533 11.2156 11.7548 11.381C13.3323 11.6517 14.941 10.9449 16.5298 11.9825C19.3585 13.8652 20.7261 16.2201 20.1728 19.8503Z" fill="white"/>
<path d="M25.217 5.11284C21.7443 1.80453 17.6417 0.210529 13.0285 0C8.74997 0.198498 4.88571 1.53385 1.57187 4.45719C-0.502122 6.28578 -0.499285 6.40909 1.43568 8.46927C1.86977 8.92942 2.31237 9.37153 2.74079 9.84673C3.39618 10.5625 4.02037 10.5024 4.70697 9.84673C5.33966 9.24522 5.97236 8.59258 6.72138 8.21663C7.87611 7.63617 8.33574 6.80008 8.18253 5.48878C8.12579 4.99554 8.18253 4.48727 8.18253 3.98501C8.15416 3.40455 8.32439 3.10981 8.91736 2.9474C11.621 2.19707 14.4614 2.19707 17.1651 2.9474C17.6644 3.08274 17.9822 3.30229 17.8716 3.84967C17.324 6.48428 18.5326 8.06024 20.6265 9.15198C20.9065 9.34045 21.1572 9.5738 21.3698 9.84372C22.0366 10.5324 22.6834 10.5114 23.3331 9.81665C23.9829 9.12191 24.6411 8.37002 25.3419 7.71136C26.3236 6.77601 26.1448 6.0151 25.217 5.11284ZM3.84446 7.13091C3.68558 7.31437 3.38483 6.90233 3.23163 6.67376C3.01884 6.373 3.32525 6.24368 3.48697 6.12338C4.12818 5.64217 4.78641 5.18803 5.58933 4.6196C5.94115 6.41511 4.46864 6.41511 3.84446 7.13091ZM22.7714 6.73992C22.6097 6.90835 22.4167 7.15196 22.2266 7.16399C21.6365 7.21812 20.4279 5.5339 20.4846 4.78502C21.3358 5.03163 21.9287 5.68728 22.6182 6.16849C22.8083 6.31586 23.0296 6.47225 22.7714 6.73992V6.73992Z" fill="white"/>
<path d="M10.7331 15.0644C10.6281 15.8644 10.1855 16.4058 9.47053 16.3937C9.30539 16.4008 9.14073 16.3705 8.98747 16.3049C8.83421 16.2393 8.69585 16.14 8.58157 16.0134C8.46728 15.8869 8.37967 15.736 8.32456 15.5708C8.26945 15.4057 8.24808 15.23 8.26189 15.0554C8.25957 14.8938 8.28797 14.7335 8.3454 14.5838C8.40282 14.4342 8.4881 14.2983 8.59613 14.1843C8.70416 14.0704 8.83274 13.9807 8.9742 13.9205C9.11565 13.8604 9.26709 13.8311 9.41946 13.8343C10.2139 13.7922 10.5629 14.3366 10.7331 15.0644Z" fill="white"/>
<path d="M16.5069 16.428C15.8061 16.2204 15.2642 15.8084 15.3522 14.9964C15.3698 14.6546 15.5149 14.3342 15.7554 14.1058C15.9959 13.8774 16.3121 13.7596 16.6346 13.7783C16.957 13.7971 17.2592 13.9508 17.4747 14.2057C17.6902 14.4607 17.8013 14.7959 17.7836 15.1377C17.7553 15.9197 17.2247 16.3257 16.5069 16.428Z" fill="white"/>
<path d="M14.1865 14.896C14.212 15.9366 13.7184 16.3998 12.9949 16.3817C12.8414 16.3917 12.6877 16.3667 12.5442 16.3082C12.4007 16.2498 12.2707 16.1593 12.1631 16.0429C12.0555 15.9265 11.9727 15.787 11.9204 15.6337C11.8681 15.4805 11.8475 15.3171 11.86 15.1546C11.8543 14.3185 12.2742 13.8343 13.0516 13.8343C13.1923 13.8229 13.3338 13.8415 13.4676 13.889C13.6014 13.9365 13.7248 14.012 13.8306 14.111C13.9365 14.21 14.0225 14.3305 14.0836 14.4653C14.1447 14.6001 14.1797 14.7466 14.1865 14.896Z" fill="white"/>
<path d="M10.7458 18.7903C10.6096 19.5212 10.3372 20.0595 9.58538 20.1107C8.77394 20.1678 8.30013 19.6836 8.26892 18.9076C8.23771 18.1317 8.75408 17.6084 9.51729 17.6114C10.2294 17.6054 10.5784 18.1347 10.7458 18.7903Z" fill="white"/>
<path d="M16.6145 17.5918C17.2784 17.67 17.7721 18.085 17.7806 18.7948C17.7988 18.9713 17.7792 19.1499 17.7233 19.3173C17.6674 19.4847 17.5767 19.6365 17.4579 19.7617C17.339 19.8868 17.1951 19.9819 17.0368 20.04C16.8785 20.098 16.71 20.1176 16.5436 20.0971C16.3771 20.1125 16.2095 20.0878 16.0532 20.0249C15.897 19.962 15.7562 19.8624 15.6414 19.7337C15.5265 19.6051 15.4406 19.4505 15.39 19.2817C15.3394 19.1129 15.3254 18.9341 15.3491 18.7587C15.3832 18.061 15.8712 17.6339 16.6145 17.5918Z" fill="white"/>
<path d="M13.1127 20.1237C12.3098 20.0967 11.8757 19.6937 11.8587 18.8576C11.8397 18.6967 11.8543 18.5334 11.9015 18.3793C11.9488 18.2251 12.0274 18.0839 12.132 17.9656C12.2365 17.8473 12.3644 17.7549 12.5064 17.6949C12.6484 17.6349 12.8012 17.6088 12.9538 17.6184C13.6291 17.5854 14.1284 17.9192 14.1823 18.7162C14.2362 19.5132 13.8646 20.0094 13.1127 20.1237Z" fill="white"/>
</svg>

<svg width="26" height="24" fill="none" xmlns="http://www.w3.org/2000/svg"><path d="M23.399 21.453c-1.135-.228-.852-.932-.877-1.606a11.53 11.53 0 010-2.105c.428-2.86-.567-4.923-2.902-6.382-.724-.454-1.306-1.155-2.01-1.654-.703-.5-1.151-1.128-.98-2.105.184-1.05-.233-1.354-1.226-1.342-.94 0-1.439.187-1.252 1.29.165.96-.201 1.203-1.135 1.267-1.302.099-1.26-.668-1.134-1.534.15-1.188-.596-.98-1.235-.984-.638-.003-1.418-.19-1.25.975.192 1.245-.327 2.02-1.292 2.706-1.055.74-1.957 1.73-2.999 2.5-1.211.902-1.674 2.054-1.603 3.585.066 1.446.023 2.899 0 4.352 0 .358.162.848-.44.902-1.452.13-.652 1.293-.72 1.96-.074 1.011.777.663 1.251.669 3.121.027 6.228 0 9.343 0h9.768c.392 0 .993.165.985-.5-.009-.664.425-1.85-.292-1.994zm-3.226-1.603c-.182 1.203-.346 1.573-1.501 1.504-1.881-.108-3.77-.03-5.657-.03-2.077 0-4.151-.027-6.225.018-.684 0-.948-.204-.851-.923a2.966 2.966 0 000-.903c-.625-3.275.587-5.57 3.262-7.233.832-.52 1.552-1.067 2.554-.902 1.577.27 3.186-.436 4.775.601 2.828 1.883 4.196 4.238 3.643 7.868z" fill="#fff"/><path d="M25.217 5.113C21.744 1.805 17.642.21 13.029 0 8.75.198 4.885 1.534 1.571 4.457-.502 6.286-.5 6.41 1.436 8.47c.434.46.876.903 1.305 1.378.655.716 1.28.655 1.966 0 .633-.602 1.265-1.254 2.014-1.63 1.155-.58 1.615-1.417 1.462-2.728-.057-.493 0-1.002 0-1.504-.029-.58.141-.875.734-1.038 2.704-.75 5.544-.75 8.248 0 .5.136.817.355.707.903-.548 2.634.66 4.21 2.755 5.302.28.188.53.422.743.692.667.688 1.313.667 1.963-.027.65-.695 1.308-1.447 2.009-2.106.982-.935.803-1.696-.125-2.598zM3.844 7.13c-.158.183-.46-.229-.612-.457-.213-.301.093-.43.255-.55.641-.482 1.3-.936 2.102-1.504.352 1.795-1.12 1.795-1.745 2.51zm18.927-.391c-.161.168-.354.412-.544.424-.59.054-1.8-1.63-1.742-2.379.85.247 1.444.902 2.133 1.383.19.148.412.304.153.572zm-12.038 8.325c-.105.8-.548 1.342-1.262 1.33a1.106 1.106 0 01-.484-.09 1.165 1.165 0 01-.405-.29 1.25 1.25 0 01-.257-.443 1.305 1.305 0 01-.063-.516 1.267 1.267 0 01.083-.471 1.22 1.22 0 01.251-.4 1.13 1.13 0 01.378-.263c.142-.06.293-.09.445-.087.795-.042 1.144.503 1.314 1.23zm5.774 1.364c-.7-.208-1.243-.62-1.155-1.432.018-.341.163-.662.403-.89.24-.229.557-.346.88-.328.322.02.624.173.84.428.215.255.326.59.309.932-.029.782-.56 1.188-1.277 1.29zm-2.32-1.532c.025 1.04-.469 1.504-1.192 1.486a1.017 1.017 0 01-.45-.074 1.068 1.068 0 01-.382-.265 1.149 1.149 0 01-.243-.41 1.2 1.2 0 01-.06-.478c-.006-.836.414-1.32 1.192-1.32a1 1 0 01.416.054c.133.048.257.123.363.222.106.099.192.22.253.354.06.135.096.282.103.431zm-3.441 3.894c-.136.731-.409 1.27-1.16 1.32-.812.058-1.286-.426-1.317-1.202-.031-.776.485-1.3 1.248-1.297.712-.006 1.061.524 1.229 1.18zm5.868-1.198c.664.078 1.158.493 1.167 1.203.018.176-.002.355-.058.522-.056.168-.146.32-.265.445a1.11 1.11 0 01-.421.278 1.056 1.056 0 01-.493.057 1.052 1.052 0 01-.49-.072 1.107 1.107 0 01-.413-.291 1.192 1.192 0 01-.251-.452 1.244 1.244 0 01-.04-.523c.033-.698.521-1.125 1.264-1.167zm-3.501 2.532c-.803-.027-1.237-.43-1.254-1.266a1.168 1.168 0 01.043-.479 1.12 1.12 0 01.23-.413 1.04 1.04 0 01.374-.271.989.989 0 01.448-.077c.675-.033 1.174.301 1.228 1.098.054.797-.317 1.293-1.07 1.408z" fill="#fff"/></svg>
